assets/images/avatar/Avatar 15.svg

<svg fill="none" height="128" viewBox="0 0 128 128" width="128" xmlns="http://www.w3.org/2000/svg" xmlns:xlink="http://www.w3.org/1999/xlink"><mask id="a" height="117" maskUnits="userSpaceOnUse" width="114" x="7" y="5"><path clip-rule="evenodd" d="m63.5429 5.84841c16.6906-.711 30.9605 5.11489 41.7521 17.82859 11.324 13.3399 18.56 45.3589 14.588 62.3799-3.96 16.9691-20.8981 26.9211-37.2947 32.9471-14.3154 5.262-29.5372 3.101-43.3795-3.296-14.1632-6.546-28.2-16.1198-31.53227-31.3247-3.30589-15.0847 6.27117-28.8811 15.64407-41.1731 0-14.9618 24.0965-36.67485 40.2223-37.36179z" fill="#eff6f7" fill-rule="evenodd"/></mask><g mask="url(#a)"><path clip-rule="evenodd" d="m60.1024 15.6303c16.6907-.711 30.1548 11.5551 40.9466 24.2688 11.323 13.3399 22.806 29.1368 18.834 46.1577-3.96 16.9692-20.8981 26.9212-37.2947 32.9472-14.3154 5.262-29.5372 3.101-43.3795-3.296-14.1632-6.546-28.2-16.1198-31.53227-31.3247-3.30589-15.0848 6.27117-28.8811 15.64407-41.1731 9.7681-12.8101 20.6561-26.893 36.7818-27.5799z" fill="#eff6f7" fill-rule="evenodd"/><path d="m109.858 97.7189c-3.81-1.9536-7.976-3.2336-12.005-4.6477-3.2518-1.1428-6.7506-1.9382-9.8104-3.6571-3.6906-2.0571-5.4857-5.3181-6.1592-9.4476-.8259-5.0012-.3504-11.328-.3504-14.3817 0-6.8358-6.1136-10.3619-12.5319-11.1238-.0226-.0137-.0478-.0227-.0739-.0264-.0262-.0036-.053-.0019-.0785.005l-.1493-.0182c-6.4183.7862-12.5348 4.3276-12.5348 11.1634 0 3.0476.4784 9.3775-.3475 14.3786-.6095 3.7059-2.4076 7.3143-5.8331 9.1429-4.4648 2.3802-9.5665 3.7211-14.3238 5.4187-2.6453.9478-5.3242 1.8956-7.8293 3.1786-8.0579 4.1294-11.2763 12.4164-12.3886 24.2014h106.7947c-1.103-11.77-4.331-20.057-12.379-24.1861z" fill="#e7baef"/><path d="m122.234 121.92h-106.7917c1.1123-11.788 4.3337-20.072 12.3916-24.2042 2.4991-1.2891 5.181-2.2369 7.8232-3.1817 4.7482-1.6945 9.8469-3.0293 14.3238-5.4217.1067-.0579.2134-.1189.3201-.189 4.4739 8.9235 11.1268 14.5676 18.5477 14.5676 7.421 0 14.0191-5.6075 18.496-14.4731.2255.1311.4511.2712.6888.4023 3.0659 1.7036 6.5677 2.5082 9.8103 3.6571 4.0352 1.4202 8.2012 2.7002 12.0142 4.6507 8.045 4.123 11.276 12.407 12.376 24.192z" fill="#a9b4c6"/><path d="m81.9139 80.195c0-.067-.0305-.134-.0396-.2011-.1128-.6796-.1981-1.3806-.2682-2.0937-.2834.2621-.5699.5242-.8625.7649-3.328 2.7825-7.6587 4.605-12.0503 4.5197-4.3185-.0823-8.4845-1.8682-11.7637-4.6507-.2865-.2499-.5669-.5059-.8442-.765-.0701.7589-.1586 1.5056-.2774 2.2218-.4937 2.9927-1.7798 5.9001-4.0533 7.875 14.403 4.8366 26.691-1.2099 30.1592-7.6709z" fill="#db9fe6"/><path d="m112.658 50.9318c-1.079-1.5238-3.047-2.9013-3.142-4.9097-.079-1.4263.863-2.7032 1.119-4.1082.304-1.6426.35-4.3002-1.634-5.3028-1.048-.5303-2.222-.7253-3.331-1.1124-1.109-.387-2.222-1.2191-2.325-2.3772 0-.6141.136-1.2205.396-1.7767.448-1.0874.704-2.2445.756-3.4195 0-1.4384-.332-2.8586-1.381-3.8826-1.072-1.0389-2.4-1.7751-3.8489-2.1334-.8412-.2102-1.7159-.3047-2.5326-.576-.7133-.2697-1.3598-.6903-1.8953-1.2332-.5355-.5428-.9472-1.195-1.2072-1.9119-.5577-1.5086-.4784-2.5508-1.5664-3.7364-.9793-1.0818-2.1434-1.9807-3.4377-2.6544-2.5789-1.3276-5.5771-1.5849-8.3445-.7162-2.1333.7101-4.5714 2.1546-6.8632 1.219-2.3985-.9722-3.7638-3.26704-6.3421-4.06247-1.1714-.3655-2.4157-.43117-3.6191-.19103-1.2033.24013-2.3271.7784-3.2685 1.56551-1.408 1.21909-2.8587 2.25829-4.224 3.61749-1.2892 1.2831-2.6576 2.2644-4.5715 1.9962-.96-.1341-1.8986-.4083-2.8677-.451-2.4595-.1036-4.5258.7375-5.629 3.1695-.7863 1.7341-1.219 3.7882-2.5996 5.0651-.7893.7254-1.9292.8838-2.9867 1.0697-1.8103.3048-4.1112.8473-5.3394 2.3284-1.1612 1.408-1.1337 3.4804-.8808 5.181.1402.9326.3383 1.8804.2073 2.816-.3688 2.6057-3.8705 2.8861-4.416 6.0434-.7406 4.2667 1.7584 6.4914 1.8133 8.1737.1493 4.8762-4.803 5.1627-3.6175 10.7917.3383 1.6 3.3067 3.4864 3.3524 5.123.0548 1.7432-1.1673 2.9318-1.8622 4.4038-.899 1.9017-.5454 3.5291.4907 5.3181.6705 1.1581 1.2953 2.4015 1.3806 3.7607.1128 1.7707-.7802 3.4652-.509 5.2389.4175 2.7063 3.6572 3.4591 4.5441 5.9033 1.1489 3.1573.1096 4.163 2.8342 6.9516 1.6366 1.6731 4.0168 2.1851 5.1414 4.4102 1.1245 2.224-.0427 5.016 1.4811 7.229 2.0602 2.992 4.1296 1.408 5.8637 3.523.6095.743 1.4567 2.529 2.1942 3.172 1.0545.915 1.9444 1.39 3.2854.985.6707-.211 1.2783-.585 1.7679-1.09.4896-.504.8456-1.123 1.0359-1.8.3992-1.472-.0244-3.105.5424-4.519.704-1.759 2.7855-2.798 3.1451-4.657.3048-1.524-.6978-2.987-1.7218-4.1568-1.024-1.1703-2.1913-2.3894-2.3497-3.9345-.2469-2.4381 1.219-5.3577 1.92-7.6404.7405-2.3985.3322-7.619-1.5238-9.8682-.9417-1.1398 1.5542-5.2785 2.3893-6.2019 2.5965-2.883 6.4-2.1059 10.1059-2.1333 3.679-.0126 7.301.9092 10.5265 2.6788 3.9985 2.1852 3.3858 2.6789 1.9108 5.7905-1.6518 3.4835-3.2732 10.1151-.9905 13.312.7528 1.0484 1.7493 2.3284 1.1459 3.4712-.1741.2846-.3875.5431-.6338.7681-1.1091 1.1681-1.9232 2.5842-2.3743 4.1306-.4511 1.5459-.5263 3.1779-.2193 4.7589.3536 1.731.9448 3.478.7314 5.267-.1767 1.496-1.0666 3.471.25 4.678.8685.798 3.0476 1.109 4.102.551.4355-.252.8369-.56 1.1947-.914 1.155-1.064 2.5844-3.011 4.1326-3.41 1.3897-.36 2.947.728 4.1904-.524.3366-.389.5759-.851.698-1.35.2743-.885.4721-1.791.5912-2.71.0343-.434.115-.863.2408-1.28 1.1794-3.328 6.0189-1.789 7.2689-5.0558.214-.6705.317-1.3716.304-2.0755.074-1.792.18-3.6906.939-5.3455.914-2.0206 1.957-1.7646 3.755-2.5539.425-.1934.795-.4911 1.076-.8655.969-1.2617.914-3.0202.646-4.5867-.269-1.5665-.738-3.1573-.448-4.7207.196-1.0653.73-2.039 1.523-2.7764.479-.445 1.043-.7924 1.524-1.2465 4.678-4.5409-2.261-11.0537.671-15.9695.378-.6339.868-1.1977 1.271-1.8286.106-.1646.21-.3322.304-.509 1.003-1.9382 1-4.4068-.259-6.1836z" fill="#985ca9"/><path d="m88.1737 62.9943c-.3047 1.1855-.7101 2.6148-1.2526 4.3794-1.344 4.3459-2.6758 8.3627-6.1775 11.2762-3.328 2.7855-7.6587 4.611-12.0473 4.5257-4.3276-.0884-8.4936-1.8682-11.7637-4.6568-3.4225-2.9165-4.6933-6.8754-6.016-11.1573-.5455-1.7646-.957-3.1939-1.2557-4.4038-1.3348-5.3485-1.5603-5.7021-.9569-10.1668.0244-.1524.0366-.3048.0579-.4724.3048-2.6636.5699-5.2175.9143-7.6191.9143-6.5676 2.5326-11.8582 8.2986-14.5462 3.584-1.6793 7.4332-1.9627 10.8648-2.1883.0547-.006.1099-.006.1646 0 3.4316.2134 7.2777.4968 10.8648 2.1761 5.763 2.688 7.3843 7.9786 8.2956 14.5462.3444 2.3924.6095 4.9463.9143 7.6191.0213.1676.0335.3048.0579.4724.6064 4.4891.3748 4.8365-.9631 10.2156z" fill="#e7baef"/><path d="m57.9748 21.8484c3.7897-1.5693 7.851-2.3781 11.9528-2.3802 5.0337.0059 9.9682 1.4012 14.2598 4.032 6.4274 3.901 10.685 10.8922 11.581 18.3193.4083 3.392.1706 7.0918-.9448 10.3405-.8351 2.4381-3.7334 6.0373-5.4858 2.1608-.3931-.8777.4145-1.5574-.3047-2.2065-1.6092-1.472-2.5417-3.331-3.0872-6.2598-.637-3.4011-4.3368-5.0164-5.5467-7.3326-1.1154-2.1333-1.2769-3.8339-3.5169-5.0468-.3339-.2197-.7196-.348-1.1186-.3719-.8868.0244-1.3927.9844-2.051 1.5848-1.8286 1.6732-4.2667.4876-6.4.3596-3.0476-.1828-5.8362 1.8957-7.5276 4.288-1.6488 2.3315-2.4625 5.4126-4.8762 6.9242-1.2465.7741-2.7855 1.0271-3.9619 1.9109-2.4381 1.856-3.0994 5.5619-4.0015 8.317-.3352 1.024-.4023 2.3497-1.3714 2.9318-4.0107 2.3984-5.562-5.501-5.4462-7.7898.2652-5.3973 1.4904-11.1177 3.7517-16.0335 2.7854-6.2039 7.8237-11.118 14.0952-13.7478z" fill="#985ca9"/><g fill="#e7baef"><path d="m49.6518 55.235c-.3048-.9691-2.4381-6.0312-4.803-4.035-1.3745 1.1642-.9143 4.5714.1462 7.7684.9722 2.9653 4.6415 5.6381 5.181 5.8331.5394.1951-.5242-9.5665-.5242-9.5665z"/><path d="m87.811 55.235c.3048-.9691 2.4381-6.0312 4.8031-4.035 1.3744 1.1642.9142 4.5714-.1463 7.7684-.9722 2.9653-4.6415 5.6381-5.1993 5.8331-.5577.1951.5425-9.5665.5425-9.5665z"/></g></g></svg>

<svg width="128" height="128" viewBox="0 0 128 128" fill="none" xmlns="http://www.w3.org/2000/svg">
<mask id="mask0_457_1642" style="mask-type:alpha" maskUnits="userSpaceOnUse" x="7" y="5" width="114" height="117">
<path fill-rule="evenodd" clip-rule="evenodd" d="M63.5429 5.84841C80.2335 5.13741 94.5034 10.9633 105.295 23.677C116.619 37.0169 123.855 69.0359 119.883 86.0569C115.923 103.026 98.9849 112.978 82.5883 119.004C68.2729 124.266 53.0511 122.105 39.2088 115.708C25.0456 109.162 11.0088 99.5882 7.67653 84.3833C4.37064 69.2986 13.9477 55.5022 23.3206 43.2102C23.3206 28.2484 47.4171 6.53535 63.5429 5.84841Z" fill="#EFF6F7"/>
</mask>
<g mask="url(#mask0_457_1642)">
<path fill-rule="evenodd" clip-rule="evenodd" d="M60.1024 15.6303C76.7931 14.9193 90.2572 27.1854 101.049 39.8991C112.372 53.239 123.855 69.0359 119.883 86.0568C115.923 103.026 98.9849 112.978 82.5883 119.004C68.2729 124.266 53.0511 122.105 39.2088 115.708C25.0456 109.162 11.0088 99.5882 7.67653 84.3833C4.37064 69.2985 13.9477 55.5022 23.3206 43.2102C33.0887 30.4001 43.9767 16.3172 60.1024 15.6303Z" fill="#EFF6F7"/>
<path d="M109.858 97.7189C106.048 95.7653 101.882 94.4853 97.853 93.0712C94.6012 91.9284 91.1024 91.133 88.0426 89.4141C84.352 87.357 82.5569 84.096 81.8834 79.9665C81.0575 74.9653 81.533 68.6385 81.533 65.5848C81.533 58.749 75.4194 55.2229 69.0011 54.461C68.9785 54.4473 68.9533 54.4383 68.9272 54.4346C68.901 54.431 68.8742 54.4327 68.8487 54.4396L68.6994 54.4214C62.2811 55.2076 56.1646 58.749 56.1646 65.5848C56.1646 68.6324 56.643 74.9623 55.8171 79.9634C55.2076 83.6693 53.4095 87.2777 49.984 89.1063C45.5192 91.4865 40.4175 92.8274 35.6602 94.525C33.0149 95.4728 30.336 96.4206 27.8309 97.7036C19.773 101.833 16.5546 110.12 15.4423 121.905H122.237C121.134 110.135 117.906 101.848 109.858 97.7189Z" fill="#E7BAEF"/>
<path d="M122.234 121.92H15.4423C16.5546 110.132 19.776 101.848 27.8339 97.7158C30.333 96.4267 33.0149 95.4789 35.6571 94.5341C40.4053 92.8396 45.504 91.5048 49.9809 89.1124C50.0876 89.0545 50.1943 88.9935 50.301 88.9234C54.7749 97.8469 61.4278 103.491 68.8487 103.491C76.2697 103.491 82.8678 97.8835 87.3447 89.0179C87.5702 89.149 87.7958 89.2891 88.0335 89.4202C91.0994 91.1238 94.6012 91.9284 97.8438 93.0773C101.879 94.4975 106.045 95.7775 109.858 97.728C117.903 101.851 121.134 110.135 122.234 121.92Z" fill="#A9B4C6"/>
<path d="M81.9139 80.195C81.9139 80.128 81.8834 80.061 81.8743 79.9939C81.7615 79.3143 81.6762 78.6133 81.6061 77.9002C81.3227 78.1623 81.0362 78.4244 80.7436 78.6651C77.4156 81.4476 73.0849 83.2701 68.6933 83.1848C64.3748 83.1025 60.2088 81.3166 56.9296 78.5341C56.6431 78.2842 56.3627 78.0282 56.0854 77.7691C56.0153 78.528 55.9268 79.2747 55.808 79.9909C55.3143 82.9836 54.0282 85.891 51.7547 87.8659C66.1577 92.7025 78.4457 86.656 81.9139 80.195Z" fill="#DB9FE6"/>
<path d="M112.658 50.9318C111.579 49.408 109.611 48.0305 109.516 46.0221C109.437 44.5958 110.379 43.3189 110.635 41.9139C110.939 40.2713 110.985 37.6137 109.001 36.6111C107.953 36.0808 106.779 35.8858 105.67 35.4987C104.561 35.1117 103.448 34.2796 103.345 33.1215C103.345 32.5074 103.481 31.901 103.741 31.3448C104.189 30.2574 104.445 29.1003 104.497 27.9253C104.497 26.4869 104.165 25.0667 103.116 24.0427C102.044 23.0038 100.716 22.2676 99.2671 21.9093C98.4259 21.6991 97.5512 21.6046 96.7345 21.3333C96.0212 21.0636 95.3747 20.643 94.8392 20.1001C94.3037 19.5573 93.892 18.9051 93.632 18.1882C93.0743 16.6796 93.1536 15.6374 92.0656 14.4518C91.0863 13.37 89.9222 12.4711 88.6279 11.7974C86.049 10.4698 83.0508 10.2125 80.2834 11.0812C78.1501 11.7913 75.712 13.2358 73.4202 12.3002C71.0217 11.328 69.6564 9.03316 67.0781 8.23773C65.9067 7.87223 64.6624 7.80656 63.459 8.0467C62.2557 8.28683 61.1319 8.8251 60.1905 9.61221C58.7825 10.8313 57.3318 11.8705 55.9665 13.2297C54.6773 14.5128 53.3089 15.4941 51.395 15.2259C50.435 15.0918 49.4964 14.8176 48.5273 14.7749C46.0678 14.6713 44.0015 15.5124 42.8983 17.9444C42.112 19.6785 41.6793 21.7326 40.2987 23.0095C39.5094 23.7349 38.3695 23.8933 37.312 24.0792C35.5017 24.384 33.2008 24.9265 31.9726 26.4076C30.8114 27.8156 30.8389 29.888 31.0918 31.5886C31.232 32.5212 31.4301 33.469 31.2991 34.4046C30.9303 37.0103 27.4286 37.2907 26.8831 40.448C26.1425 44.7147 28.6415 46.9394 28.6964 48.6217C28.8457 53.4979 23.8934 53.7844 25.0789 59.4134C25.4172 61.0134 28.3856 62.8998 28.4313 64.5364C28.4861 66.2796 27.264 67.4682 26.5691 68.9402C25.6701 70.8419 26.0237 72.4693 27.0598 74.2583C27.7303 75.4164 28.3551 76.6598 28.4404 78.019C28.5532 79.7897 27.6602 81.4842 27.9314 83.2579C28.3489 85.9642 31.5886 86.717 32.4755 89.1612C33.6244 92.3185 32.5851 93.3242 35.3097 96.1128C36.9463 97.7859 39.3265 98.2979 40.4511 100.523C41.5756 102.747 40.4084 105.539 41.9322 107.752C43.9924 110.744 46.0618 109.16 47.7959 111.275C48.4054 112.018 49.2526 113.804 49.9901 114.447C51.0446 115.362 51.9345 115.837 53.2755 115.432C53.9462 115.221 54.5538 114.847 55.0434 114.342C55.533 113.838 55.889 113.219 56.0793 112.542C56.4785 111.07 56.0549 109.437 56.6217 108.023C57.3257 106.264 59.4072 105.225 59.7668 103.366C60.0716 101.842 59.069 100.379 58.045 99.2092C57.021 98.0389 55.8537 96.8198 55.6953 95.2747C55.4484 92.8366 56.9143 89.917 57.6153 87.6343C58.3558 85.2358 57.9475 80.0153 56.0915 77.7661C55.1498 76.6263 57.6457 72.4876 58.4808 71.5642C61.0773 68.6812 64.8808 69.4583 68.5867 69.4309C72.2657 69.4183 75.8877 70.3401 79.1132 72.1097C83.1117 74.2949 82.499 74.7886 81.024 77.9002C79.3722 81.3837 77.7508 88.0153 80.0335 91.2122C80.7863 92.2606 81.7828 93.5406 81.1794 94.6834C81.0053 94.968 80.7919 95.2265 80.5456 95.4515C79.4365 96.6196 78.6224 98.0357 78.1713 99.5821C77.7202 101.128 77.645 102.76 77.952 104.341C78.3056 106.072 78.8968 107.819 78.6834 109.608C78.5067 111.104 77.6168 113.079 78.9334 114.286C79.8019 115.084 81.981 115.395 83.0354 114.837C83.4709 114.585 83.8723 114.277 84.2301 113.923C85.3851 112.859 86.8145 110.912 88.3627 110.513C89.7524 110.153 91.3097 111.241 92.5531 109.989C92.8897 109.6 93.129 109.138 93.2511 108.639C93.5254 107.754 93.7232 106.848 93.8423 105.929C93.8766 105.495 93.9573 105.066 94.0831 104.649C95.2625 101.321 100.102 102.86 101.352 99.5932C101.566 98.9227 101.669 98.2216 101.656 97.5177C101.73 95.7257 101.836 93.8271 102.595 92.1722C103.509 90.1516 104.552 90.4076 106.35 89.6183C106.775 89.4249 107.145 89.1272 107.426 88.7528C108.395 87.4911 108.34 85.7326 108.072 84.1661C107.803 82.5996 107.334 81.0088 107.624 79.4454C107.82 78.3801 108.354 77.4064 109.147 76.669C109.626 76.224 110.19 75.8766 110.671 75.4225C115.349 70.8816 108.41 64.3688 111.342 59.453C111.72 58.8191 112.21 58.2553 112.613 57.6244C112.719 57.4598 112.823 57.2922 112.917 57.1154C113.92 55.1772 113.917 52.7086 112.658 50.9318Z" fill="#985CA9"/>
<path d="M88.1737 62.9943C87.869 64.1798 87.4636 65.6091 86.9211 67.3737C85.5771 71.7196 84.2453 75.7364 80.7436 78.6499C77.4156 81.4354 73.0849 83.2609 68.6963 83.1756C64.3687 83.0872 60.2027 81.3074 56.9326 78.5188C53.5101 75.6023 52.2393 71.6434 50.9166 67.3615C50.3711 65.5969 49.9596 64.1676 49.6609 62.9577C48.3261 57.6092 48.1006 57.2556 48.704 52.7909C48.7284 52.6385 48.7406 52.4861 48.7619 52.3185C49.0667 49.6549 49.3318 47.101 49.6762 44.6994C50.5905 38.1318 52.2088 32.8412 57.9748 30.1532C61.5588 28.4739 65.408 28.1905 68.8396 27.9649C68.8943 27.9589 68.9495 27.9589 69.0042 27.9649C72.4358 28.1783 76.2819 28.4617 79.869 30.141C85.632 32.829 87.2533 38.1196 88.1646 44.6872C88.509 47.0796 88.7741 49.6335 89.0789 52.3063C89.1002 52.4739 89.1124 52.6111 89.1368 52.7787C89.7432 57.2678 89.5116 57.6152 88.1737 62.9943Z" fill="#E7BAEF"/>
<path d="M57.9748 21.8484C61.7645 20.2791 65.8258 19.4703 69.9276 19.4682C74.9613 19.4741 79.8958 20.8694 84.1874 23.5002C90.6148 27.4012 94.8724 34.3924 95.7684 41.8195C96.1767 45.2115 95.939 48.9113 94.8236 52.16C93.9885 54.5981 91.0902 58.1973 89.3378 54.3208C88.9447 53.4431 89.7523 52.7634 89.0331 52.1143C87.4239 50.6423 86.4914 48.7833 85.9459 45.8545C85.3089 42.4534 81.6091 40.8381 80.3992 38.5219C79.2838 36.3886 79.1223 34.688 76.8823 33.4751C76.5484 33.2554 76.1627 33.1271 75.7637 33.1032C74.8769 33.1276 74.371 34.0876 73.7127 34.688C71.8841 36.3612 69.446 35.1756 67.3127 35.0476C64.2651 34.8648 61.4765 36.9433 59.7851 39.3356C58.1363 41.6671 57.3226 44.7482 54.9089 46.2598C53.6624 47.0339 52.1234 47.2869 50.947 48.1707C48.5089 50.0267 47.8476 53.7326 46.9455 56.4877C46.6103 57.5117 46.5432 58.8374 45.5741 59.4195C41.5634 61.8179 40.0121 53.9185 40.1279 51.6297C40.3931 46.2324 41.6183 40.512 43.8796 35.5962C46.665 29.3923 51.7033 24.4782 57.9748 21.8484Z" fill="#985CA9"/>
<path d="M49.6518 55.235C49.347 54.2659 47.2137 49.2038 44.8488 51.2C43.4743 52.3642 43.9345 55.7714 44.995 58.9684C45.9672 61.9337 49.6365 64.6065 50.176 64.8015C50.7154 64.9966 49.6518 55.235 49.6518 55.235Z" fill="#E7BAEF"/>
<path d="M87.811 55.235C88.1158 54.2659 90.2491 49.2038 92.6141 51.2C93.9885 52.3642 93.5283 55.7714 92.4678 58.9684C91.4956 61.9337 87.8263 64.6065 87.2685 64.8015C86.7108 64.9966 87.811 55.235 87.811 55.235Z" fill="#E7BAEF"/>
</g>
</svg>
